icons/svg/tourist/animal_bird.svg

<?xml version="1.0" encoding="UTF-8" standalone="no"?>
<!-- Created with Inkscape (http://www.inkscape.org/) -->

<svg
   xmlns:dc="http://purl.org/dc/elements/1.1/"
   xmlns:cc="http://creativecommons.org/ns#"
   xmlns:rdf="http://www.w3.org/1999/02/22-rdf-syntax-ns#"
   xmlns:svg="http://www.w3.org/2000/svg"
   xmlns="http://www.w3.org/2000/svg"
   xmlns:sodipodi="http://sodipodi.sourceforge.net/DTD/sodipodi-0.dtd"
   xmlns:inkscape="http://www.inkscape.org/namespaces/inkscape"
   version="1.0"
   width="580"
   height="580"
   id="svg2"
   sodipodi:version="0.32"
   inkscape:version="0.92.3 (2405546, 2018-03-11)"
   sodipodi:docname="animal_bird.svg"
   inkscape:output_extension="org.inkscape.output.svg.inkscape">
  <metadata
     id="metadata2975">
    <rdf:RDF>
      <cc:Work
         rdf:about="">
        <dc:format>image/svg+xml</dc:format>
        <dc:type
           rdf:resource="http://purl.org/dc/dcmitype/StillImage" />
        <cc:license
           rdf:resource="http://web.resource.org/cc/PublicDomain" />
        <dc:language>en</dc:language>
        <dc:title></dc:title>
      </cc:Work>
    </rdf:RDF>
  </metadata>
  <sodipodi:namedview
     inkscape:window-height="1006"
     inkscape:window-width="1920"
     inkscape:pageshadow="2"
     inkscape:pageopacity="0.0"
     guidetolerance="10.0"
     gridtolerance="10.0"
     objecttolerance="10.0"
     borderopacity="1.0"
     bordercolor="#666666"
     pagecolor="#ffffff"
     id="base"
     inkscape:zoom="0.92167712"
     inkscape:cx="69.534988"
     inkscape:cy="367.14152"
     inkscape:window-x="1920"
     inkscape:window-y="0"
     inkscape:current-layer="svg2"
     showgrid="false"
     inkscape:window-maximized="1" />
  <defs
     id="defs4">
    <inkscape:perspective
       sodipodi:type="inkscape:persp3d"
       inkscape:vp_x="0 : 290 : 1"
       inkscape:vp_y="0 : 1000 : 0"
       inkscape:vp_z="580 : 290 : 1"
       inkscape:persp3d-origin="290 : 193.33333 : 1"
       id="perspective2441" />
    <inkscape:perspective
       id="perspective3452"
       inkscape:persp3d-origin="30 : 20 : 1"
       inkscape:vp_z="60 : 30 : 1"
       inkscape:vp_y="0 : 1000 : 0"
       inkscape:vp_x="0 : 30 : 1"
       sodipodi:type="inkscape:persp3d" />
    <symbol
       viewBox="244.5 110 489 219.9"
       id="symbol-university">
      <path
         id="path4460"
         d="M79,43l57,119c0,0,21-96,104-96s124,106,124,106l43-133l82-17L0,17L79,43z" />
      <path
         id="path4462"
         d="M94,176l-21,39"
         stroke-width="20"
         stroke="#000000"
         fill="none" />
      <path
         id="path4464"
         d="M300,19c0,10.5-22.6,19-50.5,19S199,29.5,199,19s22.6-19,50.5-19S300,8.5,300,19z" />
      <path
         id="path4466"
         d="M112,216l-16-38L64,88c0,0-9-8-4-35s16-24,16-24"
         stroke-width="20"
         stroke="#000000"
         ill="none" />
    </symbol>
    <inkscape:perspective
       id="perspective4471"
       inkscape:persp3d-origin="372.04724 : 350.78739 : 1"
       inkscape:vp_z="744.09448 : 526.18109 : 1"
       inkscape:vp_y="0 : 1000 : 0"
       inkscape:vp_x="0 : 526.18109 : 1"
       sodipodi:type="inkscape:persp3d" />
    <inkscape:perspective
       id="perspective4668"
       inkscape:persp3d-origin="6 : 4 : 1"
       inkscape:vp_z="12 : 6 : 1"
       inkscape:vp_y="0 : 1000 : 0"
       inkscape:vp_x="0 : 6 : 1"
       sodipodi:type="inkscape:persp3d" />
    <inkscape:perspective
       id="perspective4904"
       inkscape:persp3d-origin="16 : 10.666667 : 1"
       inkscape:vp_z="32 : 16 : 1"
       inkscape:vp_y="0 : 1000 : 0"
       inkscape:vp_x="0 : 16 : 1"
       sodipodi:type="inkscape:persp3d" />
  </defs>
  <g
     id="g1327">
    <path
       d="M 66.275,1.768 C 24.94,1.768 1.704,23.139 1.704,66.804 L 1.704,516.927 C 1.704,557.771 22.599,579.156 63.896,579.156 L 515.92,579.156 C 557.227,579.156 578.149,558.841 578.149,516.927 L 578.149,66.804 C 578.149,24.203 557.227,1.768 514.628,1.768 C 514.624,1.768 66.133,1.625 66.275,1.768 z "
       style="fill:#111;stroke:#eee;stroke-width:3.40799999"
       id="path1329" />
  </g>
  <path
     inkscape:connector-curvature="0"
     d="m 222.66914,37.776717 c -5.03807,0 -5.6055,0.06211 -7.88161,0.121094 2.10718,8.405333 5.27558,24.859966 2.26114,42.360239 -3.04008,17.649053 -13.33996,36.03146 -36.76066,45.04939 l 3.10254,4.77072 4.16316,6.4055 10.16779,15.47927 c 17.4087,-3.84924 33.87356,-6.92015 49.39419,-9.25332 a 4.534599,4.534599 0 0 1 0.0146,-0.002 c 3.63413,-0.53442 7.3043,-1.0744 10.91107,-1.51159 a 4.534599,4.534599 0 0 1 0.54493,-0.0334 c -0.57061,0 -0.20997,-0.0633 0.64514,-0.0876 3.00205,-0.42448 5.87037,-0.74553 8.68752,-1.05853 21.40991,-2.474 40.92292,-3.66399 58.75606,-3.66417 67.41113,-0.054 110.52854,15.75375 137.56587,31.754 13.51867,8.00013 23.02238,16.04524 29.49078,22.02048 2.08127,1.92257 3.33882,3.14058 4.80204,4.54106 -0.0409,-0.57975 -0.004,-0.65343 -0.0585,-1.307 -0.59108,-7.13268 -1.8569,-18.78525 -3.0378,-36.02364 C 493.55341,129.71328 479.6997,108.81074 458.49724,92.336223 437.29478,75.861717 408.72053,64.148193 378.45979,56.020291 317.9383,39.764467 250.84269,37.776717 222.66914,37.776717 Z m 36.56229,103.298103 c -0.0738,0.0107 -0.14323,0.0166 -0.21713,0.0272 l 0.64097,-0.046 c -0.21789,0 -0.25545,0.014 -0.42384,0.0188 z M 184.39898,39.112937 c -37.99857,0 -68.52927,30.635373 -68.52927,68.529263 v 31.21325 7.37635 7.48283 c 6e-5,2.29349 -1.15023,4.43412 -3.06286,5.69981 -19.087223,12.62693 -31.242516,32.6385 -31.34061,55.06894 l 18.316648,148.12617 c 0.03463,0.27844 0.05206,0.55875 0.05217,0.83932 0,27.66366 18.302622,51.67632 45.251902,62.73342 v -0.002 c 9.8775,4.04976 20.85087,6.33242 32.57661,6.33242 h 15.50014 c 10.99005,0 21.47895,-2.07645 31.09424,-5.73948 l 0.006,-0.002 c 27.74104,-10.7633 46.72801,-35.18371 46.72801,-63.32219 -4.4e-4,-0.24969 0.0128,-0.49921 0.0397,-0.74745 l 16.30385,-148.19705 c -0.0783,-19.51171 -9.31295,-37.14598 -24.3526,-49.75538 -0.70584,0.097 -1.48057,0.17555 -2.14213,0.29229 -0.0874,0.0156 -0.17511,0.0296 -0.26306,0.0418 -19.37397,2.64671 -39.70202,6.24758 -60.66228,11.01128 -0.0107,0.002 -0.0208,0.004 -0.0313,0.006 -1.33344,0.29632 -2.79892,0.48229 -4.26129,0.48229 -6.55431,0 -12.68244,-3.35583 -16.34989,-8.77729 -0.0198,-0.0298 -0.0392,-0.0598 -0.0585,-0.0898 l -16.35613,-25.01252 c -0.003,-0.005 -0.007,-0.01 -0.0107,-0.0146 l -4.16734,-6.40968 -1.60137,-2.4553 c -0.0134,-0.0215 -0.0266,-0.0431 -0.0397,-0.0648 -0.99066,-1.55676 -1.99781,-3.48905 -2.56595,-5.86893 -0.96576,-3.76189 -0.83487,-7.81804 0.70568,-11.63555 2.14386,-5.65005 6.75449,-10.16401 12.77969,-11.86312 l 0.071,-0.0208 c 10.8247,-3.1477 17.30728,-8.235695 21.43797,-16.053422 4.82103,-9.15552 5.37343,-21.332562 4.35315,-31.288412 -0.51014,-4.97792 -1.37006,-9.368416 -2.10247,-12.491556 -0.73239,-3.123151 -1.63084,-5.8613 -1.29655,-4.858419 -0.009,-0.0264 -0.0169,-0.05281 -0.025,-0.07932 -1.99081,-0.180956 -3.93117,-0.486469 -5.99837,-0.486469 z m -20.21241,17.281079 c 3.543,0 6.71613,1.53956 8.68752,3.837451 1.97138,2.297891 2.84573,5.160469 2.84573,7.967203 0,2.806744 -0.87435,5.667237 -2.84573,7.965129 -1.97139,2.297891 -5.14452,3.837451 -8.68752,3.837451 -3.54291,0 -6.71365,-1.537059 -8.6896,-3.831187 -1.97595,-2.294139 -2.86079,-5.155648 -2.86661,-7.965129 -0.005,-2.809471 0.86775,-5.677447 2.84573,-7.977647 1.978,-2.300189 5.15827,-3.833271 8.71048,-3.833271 z m -23.96425,392.261814 -25.74728,73.11624 c 0.79447,1.49779 5.0742,9.24368 14.974,15.02412 10.88454,6.35543 27.69685,9.64275 53.46757,-4.64544 a 3.2787451,3.2787451 0 0 1 3.17979,0 c 25.66247,14.23436 42.41863,10.95023 53.27756,4.60786 9.8716,-5.76568 14.14686,-13.48625 14.94478,-14.98654 L 228.76773,449.2446 c -11.1509,3.89472 -23.14178,6.09858 -35.71047,6.09858 h -15.50014 c -13.19168,0 -25.79601,-2.402 -37.3348,-6.68735 z"
     id="path2"
     style="fill:#ffffff;fill-opacity:1;stroke-width:1" />
</svg>

<svg width="580" height="580" viewBox="0 0 580 580" fill="none" xmlns="http://www.w3.org/2000/svg">
<g clip-path="url(#clip0)">
<path d="M66.2751 1.7679C24.9401 1.7679 1.7041 23.1389 1.7041 66.8039V516.927C1.7041 557.771 22.5991 579.156 63.8961 579.156H515.92C557.227 579.156 578.149 558.841 578.149 516.927V66.8039C578.149 24.2029 557.227 1.7679 514.628 1.7679C514.624 1.7679 66.1331 1.6249 66.2751 1.7679Z" fill="#111111" stroke="#EEEEEE" stroke-width="3.408"/>
<path d="M222.669 37.7766C217.631 37.7766 217.064 37.8387 214.788 37.8977C216.895 46.303 220.063 62.7577 217.049 80.2579C214.009 97.907 203.709 116.289 180.288 125.307L183.391 130.078L187.554 136.484L197.722 151.963C215.13 148.114 231.595 145.043 247.116 142.71C247.121 142.709 247.126 142.708 247.13 142.708C250.765 142.173 254.435 141.633 258.041 141.196C258.222 141.174 258.404 141.163 258.586 141.163C258.016 141.163 258.376 141.099 259.231 141.075C262.234 140.65 265.102 140.329 267.919 140.016C289.329 137.542 308.842 136.352 326.675 136.352C394.086 136.298 437.204 152.106 464.241 168.106C477.76 176.106 487.263 184.151 493.732 190.127C495.813 192.049 497.071 193.267 498.534 194.668C498.493 194.088 498.53 194.014 498.475 193.361C497.884 186.228 496.618 174.576 495.437 157.337C493.553 129.713 479.7 108.811 458.497 92.3361C437.295 75.8616 408.721 64.1481 378.46 56.0202C317.938 39.7644 250.843 37.7766 222.669 37.7766ZM259.231 141.075C259.158 141.085 259.088 141.091 259.014 141.102L259.655 141.056C259.437 141.056 259.4 141.07 259.231 141.075ZM184.399 39.1128C146.4 39.1128 115.87 69.7482 115.87 107.642V138.855V146.232V153.715C115.87 156.008 114.72 158.149 112.807 159.414C93.7197 172.041 81.5644 192.053 81.4663 214.483L99.783 362.609C99.8176 362.888 99.835 363.168 99.8351 363.449C99.8351 391.112 118.138 415.125 145.087 426.182V426.18C154.965 430.23 165.938 432.513 177.664 432.513H193.164C204.154 432.513 214.643 430.436 224.258 426.773L224.264 426.771C252.005 416.008 270.992 391.587 270.992 363.449C270.992 363.199 271.005 362.95 271.032 362.701L287.336 214.504C287.257 194.993 278.023 177.358 262.983 164.749C262.277 164.846 261.502 164.925 260.841 165.041C260.753 165.057 260.666 165.071 260.578 165.083C241.204 167.73 220.876 171.331 199.916 176.094C199.905 176.096 199.895 176.098 199.884 176.1C198.551 176.397 197.085 176.583 195.623 176.583C189.069 176.583 182.94 173.227 179.273 167.805C179.253 167.776 179.234 167.746 179.215 167.716L162.858 142.703C162.855 142.698 162.851 142.693 162.848 142.689L158.68 136.279L157.079 133.824C157.066 133.802 157.052 133.78 157.039 133.759C156.049 132.202 155.041 130.27 154.473 127.89C153.508 124.128 153.638 120.072 155.179 116.254C157.323 110.604 161.934 106.09 167.959 104.391L168.03 104.37C178.854 101.223 185.337 96.1346 189.468 88.3169C194.289 79.1614 194.841 66.9843 193.821 57.0285C193.311 52.0506 192.451 47.6601 191.718 44.5369C190.986 41.4138 190.088 38.6756 190.422 39.6785C190.413 39.6521 190.405 39.6257 190.397 39.5992C188.406 39.4182 186.466 39.1127 184.398 39.1127L184.399 39.1128ZM164.187 56.3939C167.73 56.3939 170.903 57.9335 172.874 60.2314C174.846 62.5293 175.72 65.3918 175.72 68.1986C175.72 71.0053 174.846 73.8658 172.874 76.1637C170.903 78.4616 167.73 80.0011 164.187 80.0011C160.644 80.0011 157.473 78.4641 155.497 76.17C153.521 73.8758 152.636 71.0143 152.63 68.2048C152.625 65.3954 153.498 62.5274 155.476 60.2272C157.454 57.927 160.634 56.3939 164.187 56.3939V56.3939ZM140.222 448.656L114.475 521.772C115.27 523.27 119.549 531.016 129.449 536.796C140.334 543.152 157.146 546.439 182.917 532.151C183.403 531.881 183.95 531.739 184.507 531.739C185.063 531.739 185.61 531.881 186.096 532.151C211.759 546.385 228.515 543.101 239.374 536.758C249.246 530.993 253.521 523.272 254.319 521.772L228.768 449.245C217.617 453.139 205.626 455.343 193.057 455.343H177.557C164.366 455.343 151.761 452.941 140.222 448.656Z" fill="white"/>
</g>
<defs>
<clipPath id="clip0">
<path d="M0 0H580V580H0V0Z" fill="white"/>
</clipPath>
</defs>
</svg>
